src/activities/babymatch/resource/images/house.svg

<?xml version="1.0" encoding="UTF-8" standalone="no"?>
<svg
   xmlns:dc="http://purl.org/dc/elements/1.1/"
   xmlns:cc="http://creativecommons.org/ns#"
   xmlns:rdf="http://www.w3.org/1999/02/22-rdf-syntax-ns#"
   xmlns:svg="http://www.w3.org/2000/svg"
   xmlns="http://www.w3.org/2000/svg"
   version="1.0"
   xml:space="preserve"
   height="100"
   width="100"
   id="svg607"><metadata
     id="metadata3732"><rdf:RDF><cc:Work
         rdf:about=""><dc:format>image/svg+xml</dc:format><dc:type
           rdf:resource="http://purl.org/dc/dcmitype/StillImage" /><dc:title></dc:title><dc:date>2021</dc:date><dc:creator><cc:Agent><dc:title>Timothée Giet</dc:title></cc:Agent></dc:creator><cc:license
           rdf:resource="http://creativecommons.org/licenses/by-sa/4.0/" /></cc:Work><cc:License
         rdf:about="http://creativecommons.org/licenses/by-sa/4.0/"><cc:permits
           rdf:resource="http://creativecommons.org/ns#Reproduction" /><cc:permits
           rdf:resource="http://creativecommons.org/ns#Distribution" /><cc:requires
           rdf:resource="http://creativecommons.org/ns#Notice" /><cc:requires
           rdf:resource="http://creativecommons.org/ns#Attribution" /><cc:permits
           rdf:resource="http://creativecommons.org/ns#DerivativeWorks" /><cc:requires
           rdf:resource="http://creativecommons.org/ns#ShareAlike" /></cc:License></rdf:RDF></metadata><defs
     id="defs609"><linearGradient
       id="linearGradient4312"><stop
         id="stop4314"
         offset="0"
         style="stop-color:#d6d6d6;stop-opacity:1;" /><stop
         id="stop4316"
         offset="1"
         style="stop-color:#ffffff;stop-opacity:0;" /></linearGradient><linearGradient
       id="linearGradient4287"><stop
         id="stop4289"
         offset="0"
         style="stop-color:#d6d6d6;stop-opacity:1;" /><stop
         id="stop4291"
         offset="1"
         style="stop-color:#d6d6d6;stop-opacity:0;" /></linearGradient></defs><path
     id="path851"
     d="M 22.71614,15.14395 V 39.743924 H 96.516065 L 83.724078,15.14395 Z"
     style="fill:#a23723;fill-opacity:1;stroke:#7c3224;stroke-width:1.96799803;stroke-linecap:butt;stroke-linejoin:round;stroke-miterlimit:4;stroke-dasharray:none;stroke-opacity:1" /><rect
     y="49.583912"
     x="12.87615"
     height="39.359959"
     width="59.03994"
     id="rect840"
     style="opacity:1;vector-effect:none;fill:#e5e5e5;fill-opacity:1;stroke:#8b8b8b;stroke-width:0.98399901;stroke-linecap:round;stroke-linejoin:round;stroke-miterlimit:4;stroke-dasharray:none;stroke-dashoffset:3.20000005;stroke-opacity:1" /><path
     id="path842"
     d="M 71.91609,88.943874 91.59607,74.183889 V 34.823929 L 81.75608,15.14395 71.91609,49.583914 Z"
     style="fill:#c2c2c2;fill-opacity:1;stroke:#8b8b8b;stroke-width:0.98399901px;stroke-linecap:butt;stroke-linejoin:round;stroke-opacity:1" /><rect
     y="65.327896"
     x="43.380119"
     height="23.615976"
     width="12.791986"
     id="rect909"
     style="opacity:1;vector-effect:none;fill:#bd7c59;fill-opacity:1;stroke:#865437;stroke-width:0.98399901;stroke-linecap:round;stroke-linejoin:round;stroke-miterlimit:4;stroke-dasharray:none;stroke-dashoffset:3.20000005;stroke-opacity:1" /><path
     id="path844"
     d="m 12.87615,49.583914 v 39.35996 H 42.39612 V 64.343899 H 57.156105 V 88.943874 H 71.91609 L 91.59607,74.183889 V 34.823929 L 81.75608,15.14395 71.91609,49.583914 Z"
     style="fill:none;stroke:#8b8b8b;stroke-width:1.96799803;stroke-linecap:butt;stroke-linejoin:round;stroke-miterlimit:4;stroke-dasharray:none;stroke-opacity:1" /><path
     id="path846"
     d="M 17.796145,15.14395 3.4839567,54.503909 H 72.990417 L 83.724078,15.14395 Z"
     style="fill:#c2412a;fill-opacity:1;stroke:#7c3224;stroke-width:1.96799803;stroke-linecap:butt;stroke-linejoin:round;stroke-miterlimit:4;stroke-dasharray:none;stroke-opacity:1" /><path
     id="path862-3"
     d="m 25.74309,11.056126 -2.269732,1.135827 v 14.759985 h 6.811118 l 2.271654,-7.946946 v -7.948866 z"
     style="fill:#9d642b;fill-opacity:1;stroke:#75502a;stroke-width:1.96799803;stroke-linecap:butt;stroke-linejoin:miter;stroke-miterlimit:4;stroke-dasharray:none;stroke-opacity:1" /><path
     id="path862"
     d="m 32.55613,19.004253 -2.270766,7.947685 V 12.191953 l 2.270766,-1.135384 z"
     style="fill:#9d642b;fill-opacity:1;stroke:none;stroke-width:0.22707669px;stroke-linecap:butt;stroke-linejoin:miter;stroke-opacity:1" /><path
     id="path864"
     d="M 30.285364,26.951938 H 23.473063 V 12.191953 h 6.812301 z"
     style="fill:#be7834;fill-opacity:1;stroke:none;stroke-width:0.22707669px;stroke-linecap:butt;stroke-linejoin:miter;stroke-opacity:1" /><rect
     y="59.423904"
     x="17.796144"
     height="14.759985"
     width="14.759985"
     id="rect890"
     style="opacity:1;vector-effect:none;fill:#a1d7eb;fill-opacity:1;stroke:#8b8b8b;stroke-width:0.98399901;stroke-linecap:round;stroke-linejoin:round;stroke-miterlimit:4;stroke-dasharray:none;stroke-dashoffset:3.20000005;stroke-opacity:1" /><rect
     y="59.423904"
     x="17.796144"
     height="14.759985"
     width="0.98399901"
     id="rect892"
     style="opacity:1;vector-effect:none;fill:#8b8b8b;fill-opacity:1;stroke:none;stroke-width:0.98399901;stroke-linecap:round;stroke-linejoin:round;stroke-miterlimit:4;stroke-dasharray:none;stroke-dashoffset:3.20000005;stroke-opacity:1" /><rect
     transform="rotate(90)"
     y="-32.556129"
     x="73.19989"
     height="14.759985"
     width="0.98399901"
     id="rect892-5"
     style="opacity:1;vector-effect:none;fill:#8b8b8b;fill-opacity:1;stroke:none;stroke-width:0.98399901;stroke-linecap:round;stroke-linejoin:round;stroke-miterlimit:4;stroke-dasharray:none;stroke-dashoffset:3.20000005;stroke-opacity:1" /><rect
     y="67.295898"
     x="45.348118"
     height="7.8719921"
     width="8.8559914"
     id="rect911"
     style="opacity:1;vector-effect:none;fill:#9f603e;fill-opacity:1;stroke:none;stroke-width:0.98399901;stroke-linecap:round;stroke-linejoin:round;stroke-miterlimit:4;stroke-dasharray:none;stroke-dashoffset:3.20000005;stroke-opacity:1" /><rect
     y="78.119881"
     x="45.348118"
     height="8.8559914"
     width="8.8559914"
     id="rect911-3"
     style="opacity:1;vector-effect:none;fill:#9f603e;fill-opacity:1;stroke:none;stroke-width:1.04368854;stroke-linecap:round;stroke-linejoin:round;stroke-miterlimit:4;stroke-dasharray:none;stroke-dashoffset:3.20000005;stroke-opacity:1" /><rect
     ry="0.27133462"
     y="76.151886"
     x="44.553257"
     height="0.54266924"
     width="1.967998"
     id="rect928"
     style="opacity:1;vector-effect:none;fill:#c2c2c2;fill-opacity:1;stroke:none;stroke-width:0.59664953;stroke-linecap:round;stroke-linejoin:round;stroke-miterlimit:4;stroke-dasharray:none;stroke-dashoffset:3.20000005;stroke-opacity:1" /><rect
     ry="0.49199951"
     y="75.167885"
     x="44.36412"
     height="2.951997"
     width="0.98399901"
     id="rect930"
     style="opacity:1;vector-effect:none;fill:#c2c2c2;fill-opacity:1;stroke:none;stroke-width:0.98399901;stroke-linecap:round;stroke-linejoin:round;stroke-miterlimit:4;stroke-dasharray:none;stroke-dashoffset:3.20000005;stroke-opacity:1" /><path
     id="path866"
     d="m 23.473063,12.191953 2.270766,-1.135384 h 6.812301 l -2.270766,1.135384 z"
     style="fill:#614123;fill-opacity:1;stroke:#75502a;stroke-width:0.49199951;stroke-linecap:butt;stroke-linejoin:miter;stroke-miterlimit:4;stroke-dasharray:none;stroke-opacity:1" /></svg>

<svg xmlns:dc="http://purl.org/dc/elements/1.1/" xmlns:cc="http://creativecommons.org/ns#" xmlns:rdf="http://www.w3.org/1999/02/22-rdf-syntax-ns#" xmlns="http://www.w3.org/2000/svg" version="1.0" xml:space="preserve" height="100" width="100"><metadata><rdf:RDF><cc:Work><dc:format>image/svg+xml</dc:format><dc:type rdf:resource="http://purl.org/dc/dcmitype/StillImage"/><dc:title/><dc:date>2021</dc:date><dc:creator><cc:Agent><dc:title>Timothée Giet</dc:title></cc:Agent></dc:creator><cc:license rdf:resource="http://creativecommons.org/licenses/by-sa/4.0/"/></cc:Work><cc:License rdf:about="http://creativecommons.org/licenses/by-sa/4.0/"><cc:permits rdf:resource="http://creativecommons.org/ns#Reproduction"/><cc:permits rdf:resource="http://creativecommons.org/ns#Distribution"/><cc:requires rdf:resource="http://creativecommons.org/ns#Notice"/><cc:requires rdf:resource="http://creativecommons.org/ns#Attribution"/><cc:permits rdf:resource="http://creativecommons.org/ns#DerivativeWorks"/><cc:requires rdf:resource="http://creativecommons.org/ns#ShareAlike"/></cc:License></rdf:RDF></metadata><path d="M22.716 15.144v24.6h73.8l-12.792-24.6z" style="fill:#a23723;fill-opacity:1;stroke:#7c3224;stroke-width:1.96799803;stroke-linecap:butt;stroke-linejoin:round;stroke-miterlimit:4;stroke-dasharray:none;stroke-opacity:1"/><rect y="49.583912" x="12.87615" height="39.359959" width="59.03994" style="opacity:1;vector-effect:none;fill:#e5e5e5;fill-opacity:1;stroke:#8b8b8b;stroke-width:.98399901;stroke-linecap:round;stroke-linejoin:round;stroke-miterlimit:4;stroke-dasharray:none;stroke-dashoffset:3.20000005;stroke-opacity:1"/><path d="m71.916 88.944 19.68-14.76v-39.36l-9.84-19.68-9.84 34.44z" style="fill:#c2c2c2;fill-opacity:1;stroke:#8b8b8b;stroke-width:.98399901px;stroke-linecap:butt;stroke-linejoin:round;stroke-opacity:1"/><rect y="65.327896" x="43.380119" height="23.615976" width="12.791986" style="opacity:1;vector-effect:none;fill:#bd7c59;fill-opacity:1;stroke:#865437;stroke-width:.98399901;stroke-linecap:round;stroke-linejoin:round;stroke-miterlimit:4;stroke-dasharray:none;stroke-dashoffset:3.20000005;stroke-opacity:1"/><path d="M12.876 49.584v39.36h29.52v-24.6h14.76v24.6h14.76l19.68-14.76v-39.36l-9.84-19.68-9.84 34.44z" style="fill:none;stroke:#8b8b8b;stroke-width:1.96799803;stroke-linecap:butt;stroke-linejoin:round;stroke-miterlimit:4;stroke-dasharray:none;stroke-opacity:1"/><path d="M17.796 15.144 3.484 54.504H72.99l10.734-39.36z" style="fill:#c2412a;fill-opacity:1;stroke:#7c3224;stroke-width:1.96799803;stroke-linecap:butt;stroke-linejoin:round;stroke-miterlimit:4;stroke-dasharray:none;stroke-opacity:1"/><path d="m25.743 11.056-2.27 1.136v14.76h6.811l2.272-7.947v-7.949z" style="fill:#9d642b;fill-opacity:1;stroke:#75502a;stroke-width:1.96799803;stroke-linecap:butt;stroke-linejoin:miter;stroke-miterlimit:4;stroke-dasharray:none;stroke-opacity:1"/><path d="m32.556 19.004-2.27 7.948v-14.76l2.27-1.135z" style="fill:#9d642b;fill-opacity:1;stroke:none;stroke-width:.22707669px;stroke-linecap:butt;stroke-linejoin:miter;stroke-opacity:1"/><path d="M30.285 26.952h-6.812v-14.76h6.812z" style="fill:#be7834;fill-opacity:1;stroke:none;stroke-width:.22707669px;stroke-linecap:butt;stroke-linejoin:miter;stroke-opacity:1"/><rect y="59.423904" x="17.796144" height="14.759985" width="14.759985" style="opacity:1;vector-effect:none;fill:#a1d7eb;fill-opacity:1;stroke:#8b8b8b;stroke-width:.98399901;stroke-linecap:round;stroke-linejoin:round;stroke-miterlimit:4;stroke-dasharray:none;stroke-dashoffset:3.20000005;stroke-opacity:1"/><rect y="59.423904" x="17.796144" height="14.759985" width="0.98399901" style="opacity:1;vector-effect:none;fill:#8b8b8b;fill-opacity:1;stroke:none;stroke-width:.98399901;stroke-linecap:round;stroke-linejoin:round;stroke-miterlimit:4;stroke-dasharray:none;stroke-dashoffset:3.20000005;stroke-opacity:1"/><rect transform="rotate(90)" y="-32.556129" x="73.19989" height="14.759985" width="0.98399901" style="opacity:1;vector-effect:none;fill:#8b8b8b;fill-opacity:1;stroke:none;stroke-width:.98399901;stroke-linecap:round;stroke-linejoin:round;stroke-miterlimit:4;stroke-dasharray:none;stroke-dashoffset:3.20000005;stroke-opacity:1"/><rect y="67.295898" x="45.348118" height="7.8719921" width="8.8559914" style="opacity:1;vector-effect:none;fill:#9f603e;fill-opacity:1;stroke:none;stroke-width:.98399901;stroke-linecap:round;stroke-linejoin:round;stroke-miterlimit:4;stroke-dasharray:none;stroke-dashoffset:3.20000005;stroke-opacity:1"/><rect y="78.119881" x="45.348118" height="8.8559914" width="8.8559914" style="opacity:1;vector-effect:none;fill:#9f603e;fill-opacity:1;stroke:none;stroke-width:1.04368854;stroke-linecap:round;stroke-linejoin:round;stroke-miterlimit:4;stroke-dasharray:none;stroke-dashoffset:3.20000005;stroke-opacity:1"/><rect ry="0.27133462" y="76.151886" x="44.553257" height="0.54266924" width="1.967998" style="opacity:1;vector-effect:none;fill:#c2c2c2;fill-opacity:1;stroke:none;stroke-width:.59664953;stroke-linecap:round;stroke-linejoin:round;stroke-miterlimit:4;stroke-dasharray:none;stroke-dashoffset:3.20000005;stroke-opacity:1"/><rect ry="0.49199951" y="75.167885" x="44.36412" height="2.951997" width="0.98399901" style="opacity:1;vector-effect:none;fill:#c2c2c2;fill-opacity:1;stroke:none;stroke-width:.98399901;stroke-linecap:round;stroke-linejoin:round;stroke-miterlimit:4;stroke-dasharray:none;stroke-dashoffset:3.20000005;stroke-opacity:1"/><path d="m23.473 12.192 2.27-1.135h6.813l-2.27 1.135z" style="fill:#614123;fill-opacity:1;stroke:#75502a;stroke-width:.49199951;stroke-linecap:butt;stroke-linejoin:miter;stroke-miterlimit:4;stroke-dasharray:none;stroke-opacity:1"/></svg>
